austria/municipalities/40921.svg

<?xml version="1.0" encoding="UTF-8"?>
<!DOCTYPE svg PUBLIC "-//W3C//DTD SVG 1.1//EN" "http://www.w3.org/Graphics/SVG/1.1/DTD/svg11.dtd">
<svg xmlns="http://www.w3.org/2000/svg" version="1.1" width="166px" height="207px" style="shape-rendering:geometricPrecision; text-rendering:geometricPrecision; image-rendering:optimizeQuality; fill-rule:evenodd; clip-rule:evenodd" xmlns:xlink="http://www.w3.org/1999/xlink">
<g><path style="opacity:1" fill="#030003" d="M -0.5,-0.5 C 54.8333,-0.5 110.167,-0.5 165.5,-0.5C 165.5,43.8333 165.5,88.1667 165.5,132.5C 159.762,165.428 141.429,188.595 110.5,202C 105.336,203.369 100.336,204.869 95.5,206.5C 86.8333,206.5 78.1667,206.5 69.5,206.5C 29.5404,196.538 6.20705,171.205 -0.5,130.5C -0.5,86.8333 -0.5,43.1667 -0.5,-0.5 Z"/></g>
<g><path style="opacity:1" fill="#013364" d="M 142.5,159.5 C 136.947,148.732 131.114,138.065 125,127.5C 120.125,135.187 115.958,143.187 112.5,151.5C 110.686,153.764 108.853,156.097 107,158.5C 98.505,143.513 90.505,128.18 83,112.5C 75.1893,126.925 67.1893,141.258 59,155.5C 53.4272,146.026 48.0939,136.359 43,126.5C 35.6112,139.28 28.7779,152.28 22.5,165.5C 20.8546,166.479 19.5213,167.812 18.5,169.5C 10.4834,158.122 5.81677,145.455 4.5,131.5C 4.5,89.1667 4.5,46.8333 4.5,4.5C 56.5,4.5 108.5,4.5 160.5,4.5C 160.833,47.5052 160.5,90.5052 159.5,133.5C 157.754,144.995 153.754,155.662 147.5,165.5C 146.746,162.615 145.08,160.615 142.5,159.5 Z"/></g>
<g><path style="opacity:1" fill="#0a3156" d="M 142.5,159.5 C 145.08,160.615 146.746,162.615 147.5,165.5C 153.754,155.662 157.754,144.995 159.5,133.5C 160.5,90.5052 160.833,47.5052 160.5,4.5C 108.5,4.5 56.5,4.5 4.5,4.5C 4.5,46.8333 4.5,89.1667 4.5,131.5C 3.50133,89.0033 3.16799,46.3366 3.5,3.5C 56.1667,3.5 108.833,3.5 161.5,3.5C 161.667,47.1679 161.5,90.8346 161,134.5C 159.26,145.985 155.26,156.652 149,166.5C 148,167.833 147,167.833 146,166.5C 144.82,164.14 143.653,161.807 142.5,159.5 Z"/></g>
<g><path style="opacity:1" fill="#1a1209" d="M 91.5,20.5 C 89.5,20.5 87.5,20.5 85.5,20.5C 85.5,18.8333 85.5,17.1667 85.5,15.5C 84.1667,15.5 82.8333,15.5 81.5,15.5C 81.5,17.1667 81.5,18.8333 81.5,20.5C 79.5,20.5 77.5,20.5 75.5,20.5C 76.9187,19.5489 78.5853,19.2155 80.5,19.5C 80.5,17.8333 80.5,16.1667 80.5,14.5C 82.5,14.5 84.5,14.5 86.5,14.5C 86.5,16.1667 86.5,17.8333 86.5,19.5C 88.4147,19.2155 90.0813,19.5489 91.5,20.5 Z"/></g>
<g><path style="opacity:1" fill="#ef9b22" d="M 91.5,20.5 C 91.5,21.8333 91.5,23.1667 91.5,24.5C 89.5,24.5 87.5,24.5 85.5,24.5C 85.5,28.5 85.5,32.5 85.5,36.5C 84.1667,36.5 82.8333,36.5 81.5,36.5C 81.5,32.5 81.5,28.5 81.5,24.5C 79.5,24.5 77.5,24.5 75.5,24.5C 75.5,23.1667 75.5,21.8333 75.5,20.5C 77.5,20.5 79.5,20.5 81.5,20.5C 81.5,18.8333 81.5,17.1667 81.5,15.5C 82.8333,15.5 84.1667,15.5 85.5,15.5C 85.5,17.1667 85.5,18.8333 85.5,20.5C 87.5,20.5 89.5,20.5 91.5,20.5 Z"/></g>
<g><path style="opacity:1" fill="#130103" d="M 75.5,20.5 C 75.5,21.8333 75.5,23.1667 75.5,24.5C 77.5,24.5 79.5,24.5 81.5,24.5C 81.5,28.5 81.5,32.5 81.5,36.5C 82.8333,36.5 84.1667,36.5 85.5,36.5C 85.5,32.5 85.5,28.5 85.5,24.5C 87.5,24.5 89.5,24.5 91.5,24.5C 91.5,23.1667 91.5,21.8333 91.5,20.5C 92.4614,22.2646 92.7947,24.2646 92.5,26.5C 90.5,26.5 88.5,26.5 86.5,26.5C 86.5,29.1667 86.5,31.8333 86.5,34.5C 91.1264,35.2996 94.9597,33.9663 98,30.5C 100.554,33.7052 103.887,35.7052 108,36.5C 109.895,34.8179 112.062,34.3179 114.5,35C 115.769,38.2009 117.769,40.8676 120.5,43C 128.354,41.8705 130.354,44.8705 126.5,52C 126.989,53.1385 127.322,54.3052 127.5,55.5C 127.5,56.1667 127.5,56.8333 127.5,57.5C 120.862,59.4238 115.695,63.4238 112,69.5C 108.355,64.021 103.855,59.3544 98.5,55.5C 93.5,59.8333 88.8333,64.5 84.5,69.5C 81.675,66.5048 79.0083,63.3381 76.5,60C 74.3228,58.4851 72.1561,56.9851 70,55.5C 63.3205,58.1795 58.6538,62.8462 56,69.5C 51.3728,62.7865 45.2061,58.4531 37.5,56.5C 38.791,56.7373 39.791,56.404 40.5,55.5C 40.3573,53.7376 40.6906,52.0709 41.5,50.5C 37.0343,47.8897 36.7009,45.223 40.5,42.5C 42.0771,39.9832 43.9104,39.9832 46,42.5C 48.8297,38.9708 51.8297,35.6374 55,32.5C 58.3246,35.3901 62.1579,35.7235 66.5,33.5C 67.2802,31.5446 68.7802,30.5446 71,30.5C 73.2198,30.5446 74.7198,31.5446 75.5,33.5C 77.0453,34.4519 78.712,34.7852 80.5,34.5C 80.5,31.8333 80.5,29.1667 80.5,26.5C 78.5,26.5 76.5,26.5 74.5,26.5C 74.2053,24.2646 74.5386,22.2646 75.5,20.5 Z"/></g>
<g><path style="opacity:1" fill="#fefefe" d="M 40.5,42.5 C 41.8333,42.5 43.1667,42.5 44.5,42.5C 45.101,46.909 43.4343,48.2424 39.5,46.5C 40.2458,45.2638 40.5792,43.9305 40.5,42.5 Z"/></g>
<g><path style="opacity:1" fill="#fefefe" d="M 110.5,36.5 C 112.665,36.1159 114.332,36.7826 115.5,38.5C 114.332,40.2174 112.665,40.8841 110.5,40.5C 110.5,39.1667 110.5,37.8333 110.5,36.5 Z"/></g>
<g><path style="opacity:1" fill="#fefefa" d="M 53.5,34.5 C 56.6853,34.7224 57.6853,36.2224 56.5,39C 52.7071,39.4866 51.7071,37.9866 53.5,34.5 Z"/></g>
<g><path style="opacity:1" fill="#fefefd" d="M 96.5,32.5 C 98.9118,32.6941 99.9118,34.0274 99.5,36.5C 98.1667,36.5 96.8333,36.5 95.5,36.5C 95.4326,35.0413 95.7659,33.7079 96.5,32.5 Z"/></g>
<g><path style="opacity:1" fill="#fefefe" d="M 69.5,31.5 C 72.1662,31.0658 73.3329,32.0658 73,34.5C 69.4034,36.0661 68.2368,35.0661 69.5,31.5 Z"/></g>
<g><path style="opacity:1" fill="#f19b1e" d="M 119.5,58.5 C 119.533,54.8981 118.199,51.8981 115.5,49.5C 111.631,46.4831 107.298,44.3164 102.5,43C 88.5,42.3333 74.5,42.3333 60.5,43C 55.7512,44.2545 52.4178,47.0878 50.5,51.5C 48.9261,53.1016 48.2594,55.1016 48.5,57.5C 42.8536,57.5421 41.0203,55.2088 43,50.5C 44.796,47.073 46.9627,43.9063 49.5,41C 52.1667,40.6667 54.8333,40.3333 57.5,40C 58.3366,38.9887 58.67,37.8221 58.5,36.5C 60.7345,36.6199 62.9011,36.2865 65,35.5C 66.7207,36.8946 68.7207,37.5613 71,37.5C 73.9577,36.1411 77.1243,35.4744 80.5,35.5C 80.5,36.5 80.5,37.5 80.5,38.5C 82.5,38.5 84.5,38.5 86.5,38.5C 86.5,37.5 86.5,36.5 86.5,35.5C 88.8568,35.3367 91.1902,35.5034 93.5,36C 96.6307,39.0842 99.9641,39.2509 103.5,36.5C 105.135,37.0463 106.801,37.3796 108.5,37.5C 109.092,42.2624 111.592,43.5957 116,41.5C 116.75,42.1258 117.584,42.6258 118.5,43C 119.886,46.2753 121.886,49.1086 124.5,51.5C 125.167,52.8333 125.833,54.1667 126.5,55.5C 124.229,56.6995 121.896,57.6995 119.5,58.5 Z"/></g>
<g><path style="opacity:1" fill="#fefefe" d="M 122.5,44.5 C 126.138,43.7366 127.638,45.0699 127,48.5C 123.331,50.0093 121.831,48.6759 122.5,44.5 Z"/></g>
<g><path style="opacity:1" fill="#2e0000" d="M 119.5,58.5 C 119.167,58.5 118.833,58.5 118.5,58.5C 116.783,52.2806 112.783,48.1139 106.5,46C 103.243,44.9571 99.9099,44.4571 96.5,44.5C 86.2648,43.1823 75.9315,43.1823 65.5,44.5C 59.3329,44.4178 54.3329,46.7512 50.5,51.5C 52.4178,47.0878 55.7512,44.2545 60.5,43C 74.5,42.3333 88.5,42.3333 102.5,43C 107.298,44.3164 111.631,46.4831 115.5,49.5C 118.199,51.8981 119.533,54.8981 119.5,58.5 Z"/></g>
<g><path style="opacity:1" fill="#ea9c25" d="M 96.5,44.5 C 95.8333,44.5 95.5,44.8333 95.5,45.5C 85.5,45.5 75.5,45.5 65.5,45.5C 65.5,45.1667 65.5,44.8333 65.5,44.5C 75.9315,43.1823 86.2648,43.1823 96.5,44.5 Z"/></g>
<g><path style="opacity:1" fill="#d79e4d" d="M 65.5,44.5 C 65.5,44.8333 65.5,45.1667 65.5,45.5C 56.715,46.1167 51.5483,50.7834 50,59.5C 49.5702,56.8078 49.7369,54.1411 50.5,51.5C 54.3329,46.7512 59.3329,44.4178 65.5,44.5 Z"/></g>
<g><path style="opacity:1" fill="#c00606" d="M 108.5,49.5 C 112.294,51.7358 114.627,55.0691 115.5,59.5C 115.114,61.9366 113.947,63.9366 112,65.5C 109.46,63.2953 107.293,60.7953 105.5,58C 103.303,56.2574 100.97,54.7574 98.5,53.5C 92.925,56.406 88.2583,60.406 84.5,65.5C 81.1623,62.6621 78.1623,59.4954 75.5,56C 71.5738,52.774 67.5738,52.774 63.5,56C 53.5474,67.0231 50.7141,65.5231 55,51.5C 56.7998,49.683 58.9664,48.5163 61.5,48C 77.2654,46.9521 92.932,47.4521 108.5,49.5 Z"/></g>
<g><path style="opacity:1" fill="#350100" d="M 108.5,49.5 C 113.753,50.7542 116.42,54.0875 116.5,59.5C 116.167,59.5 115.833,59.5 115.5,59.5C 114.627,55.0691 112.294,51.7358 108.5,49.5 Z"/></g>
<g><path style="opacity:1" fill="#d99e48" d="M 95.5,45.5 C 95.5,44.8333 95.8333,44.5 96.5,44.5C 99.9099,44.4571 103.243,44.9571 106.5,46C 112.783,48.1139 116.783,52.2806 118.5,58.5C 118.158,59.3382 117.492,59.6716 116.5,59.5C 116.42,54.0875 113.753,50.7542 108.5,49.5C 108.389,48.8826 108.056,48.3826 107.5,48C 103.506,47.0555 99.506,46.2221 95.5,45.5 Z"/></g>
<g><path style="opacity:1" fill="#00010c" d="M 40.5,55.5 C 39.791,56.404 38.791,56.7373 37.5,56.5C 35.4727,56.3379 33.4727,56.5045 31.5,57C 33.4875,58.3189 34.6541,60.1523 35,62.5C 35.202,71.2096 35.8686,79.8763 37,88.5C 40.5254,96.5219 46.692,101.022 55.5,102C 76.0475,105.594 96.3808,104.594 116.5,99C 121.935,97.2306 125.768,93.7306 128,88.5C 127.916,84.1209 128.082,79.7876 128.5,75.5C 128.333,74.8333 128.167,74.1667 128,73.5C 127.722,74.4158 127.222,75.0825 126.5,75.5C 126.768,73.901 126.434,72.5676 125.5,71.5C 126.462,69.0144 127.295,69.0144 128,71.5C 128.157,66.7145 129.324,62.2145 131.5,58C 130.207,57.51 128.873,57.3433 127.5,57.5C 127.5,56.8333 127.5,56.1667 127.5,55.5C 129.591,55.6816 131.591,55.3482 133.5,54.5C 133.833,55 134.167,55.5 134.5,56C 132.618,59.2631 131.452,62.7631 131,66.5C 136.169,88.7315 127.669,101.231 105.5,104C 85.6702,107.72 66.0035,107.053 46.5,102C 38.3917,98.5488 34.225,92.3821 34,83.5C 33.6667,76.8333 33.3333,70.1667 33,63.5C 31.9296,60.7583 30.4296,58.2583 28.5,56C 32.4262,54.1762 36.4262,54.0096 40.5,55.5 Z"/></g>
<g><path style="opacity:1" fill="#fefefe" d="M 125.5,71.5 C 126.434,72.5676 126.768,73.901 126.5,75.5C 125.508,75.6716 124.842,75.3382 124.5,74.5C 125.404,73.791 125.737,72.791 125.5,71.5 Z"/></g>
<g><path style="opacity:1" fill="#fdfdfd" d="M 127.5,57.5 C 128.873,57.3433 130.207,57.51 131.5,58C 129.324,62.2145 128.157,66.7145 128,71.5C 127.295,69.0144 126.462,69.0144 125.5,71.5C 125.737,72.791 125.404,73.791 124.5,74.5C 123.883,74.6107 123.383,74.944 123,75.5C 122.667,73.8333 122.333,72.1667 122,70.5C 120.987,74.7438 121.82,78.5771 124.5,82C 125.167,82.6667 125.833,82.6667 126.5,82C 123.939,79.8441 123.939,77.6774 126.5,75.5C 127.222,75.0825 127.722,74.4158 128,73.5C 128.167,74.1667 128.333,74.8333 128.5,75.5C 128.082,79.7876 127.916,84.1209 128,88.5C 125.768,93.7306 121.935,97.2306 116.5,99C 96.3808,104.594 76.0475,105.594 55.5,102C 46.692,101.022 40.5254,96.5219 37,88.5C 35.8686,79.8763 35.202,71.2096 35,62.5C 34.6541,60.1523 33.4875,58.3189 31.5,57C 33.4727,56.5045 35.4727,56.3379 37.5,56.5C 45.2061,58.4531 51.3728,62.7865 56,69.5C 58.6538,62.8462 63.3205,58.1795 70,55.5C 72.1561,56.9851 74.3228,58.4851 76.5,60C 79.0083,63.3381 81.675,66.5048 84.5,69.5C 88.8333,64.5 93.5,59.8333 98.5,55.5C 103.855,59.3544 108.355,64.021 112,69.5C 115.695,63.4238 120.862,59.4238 127.5,57.5 Z"/></g>
<g><path style="opacity:1" fill="#000000" d="M 94.5,78.5 C 95.3091,76.7078 95.8091,74.7078 96,72.5C 97.5291,78.9545 98.1957,78.9545 98,72.5C 99.4217,75.0301 99.755,77.6967 99,80.5C 97.1269,82.3898 96.2936,84.3898 96.5,86.5C 95.6185,83.8697 94.9519,81.203 94.5,78.5 Z"/></g>
<g><path style="opacity:1" fill="#000000" d="M 64.5,72.5 C 65.29,73.6085 65.79,74.9419 66,76.5C 66.1118,73.5529 67.6118,72.2196 70.5,72.5C 70.2924,74.9201 70.6258,77.2534 71.5,79.5C 69.9293,81.8822 69.096,84.5488 69,87.5C 66.3387,86.2575 65.8387,84.4242 67.5,82C 67.0541,80.2741 66.2208,78.7741 65,77.5C 64.5065,75.8659 64.3398,74.1992 64.5,72.5 Z"/></g>
<g><path style="opacity:1" fill="#fefffe" d="M 67.5,74.5 C 68.2674,75.172 68.9341,76.0053 69.5,77C 67.9387,77.1881 67.272,76.3547 67.5,74.5 Z"/></g>
<g><path style="opacity:1" fill="#000000" d="M 94.5,78.5 C 92.1186,76.476 91.9519,74.1427 94,71.5C 94.4966,73.8098 94.6633,76.1432 94.5,78.5 Z"/></g>
<g><path style="opacity:1" fill="#000000" d="M 124.5,74.5 C 124.842,75.3382 125.508,75.6716 126.5,75.5C 123.939,77.6774 123.939,79.8441 126.5,82C 125.833,82.6667 125.167,82.6667 124.5,82C 121.82,78.5771 120.987,74.7438 122,70.5C 122.333,72.1667 122.667,73.8333 123,75.5C 123.383,74.944 123.883,74.6107 124.5,74.5 Z"/></g>
<g><path style="opacity:1" fill="#000000" d="M 44.5,74.5 C 44.3398,72.8008 44.5065,71.1341 45,69.5C 46.3141,71.1471 46.1475,72.8138 44.5,74.5 Z"/></g>
<g><path style="opacity:1" fill="#090909" d="M 44.5,74.5 C 44.4226,75.7498 43.756,76.5831 42.5,77C 43.885,78.9645 43.7184,80.7979 42,82.5C 41.4427,80.3853 40.6094,78.3853 39.5,76.5C 40.3742,74.2534 40.7076,71.9201 40.5,69.5C 41.5,69.5 42.5,69.5 43.5,69.5C 43.6427,71.2624 43.3094,72.9291 42.5,74.5C 42.9698,75.463 43.6365,75.463 44.5,74.5 Z"/></g>
<g><path style="opacity:1" fill="#fb9907" d="M 112.5,151.5 C 116.751,144.619 120.918,137.619 125,130.5C 132.279,143.555 139.446,156.722 146.5,170C 134.678,186.235 119.012,196.402 99.5,200.5C 88.1667,200.5 76.8333,200.5 65.5,200.5C 47.2503,196.624 32.417,187.29 21,172.5C 20.8648,170.078 21.3648,167.745 22.5,165.5C 29.5591,153.725 36.3925,141.725 43,129.5C 51.4268,146.023 60.0935,162.357 69,178.5C 69.6667,177.5 69.6667,176.5 69,175.5C 65.6319,169.625 62.4652,163.625 59.5,157.5C 67.6151,143.598 75.4484,129.598 83,115.5C 89.9922,131.143 97.8256,146.31 106.5,161C 102.995,165.838 100.495,171.005 99,176.5C 104.053,168.389 108.553,160.055 112.5,151.5 Z"/></g>
<g><path style="opacity:1" fill="#fefefe" d="M -0.5,130.5 C 6.20705,171.205 29.5404,196.538 69.5,206.5C 46.1667,206.5 22.8333,206.5 -0.5,206.5C -0.5,181.167 -0.5,155.833 -0.5,130.5 Z"/></g>
<g><path style="opacity:1" fill="#fefefe" d="M 165.5,132.5 C 165.5,157.167 165.5,181.833 165.5,206.5C 142.167,206.5 118.833,206.5 95.5,206.5C 100.336,204.869 105.336,203.369 110.5,202C 141.429,188.595 159.762,165.428 165.5,132.5 Z"/></g>
<g><path style="opacity:1" fill="#150102" d="M 112.5,151.5 C 108.553,160.055 104.053,168.389 99,176.5C 100.495,171.005 102.995,165.838 106.5,161C 97.8256,146.31 89.9922,131.143 83,115.5C 75.4484,129.598 67.6151,143.598 59.5,157.5C 62.4652,163.625 65.6319,169.625 69,175.5C 69.6667,176.5 69.6667,177.5 69,178.5C 60.0935,162.357 51.4268,146.023 43,129.5C 36.3925,141.725 29.5591,153.725 22.5,165.5C 28.7779,152.28 35.6112,139.28 43,126.5C 48.0939,136.359 53.4272,146.026 59,155.5C 67.1893,141.258 75.1893,126.925 83,112.5C 90.505,128.18 98.505,143.513 107,158.5C 108.853,156.097 110.686,153.764 112.5,151.5 Z"/></g>
<g><path style="opacity:1" fill="#ea9c28" d="M 65.5,200.5 C 76.8333,200.5 88.1667,200.5 99.5,200.5C 98.3915,201.29 97.0581,201.79 95.5,202C 86.8333,202.667 78.1667,202.667 69.5,202C 67.9419,201.79 66.6085,201.29 65.5,200.5 Z"/></g>
</svg>

<svg xmlns="http://www.w3.org/2000/svg" width="166" height="207" style="shape-rendering:geometricPrecision;text-rendering:geometricPrecision;image-rendering:optimizeQuality;fill-rule:evenodd;clip-rule:evenodd"><path style="opacity:1" fill="#030003" d="M-.5-.5h166v133c-5.738 32.928-24.071 56.095-55 69.5a236.853 236.853 0 0 0-15 4.5h-26c-39.96-9.962-63.293-35.295-70-76V-.5z"/><path style="opacity:1" fill="#013364" d="M142.5 159.5a752.162 752.162 0 0 0-17.5-32 158.177 158.177 0 0 0-12.5 24 478.42 478.42 0 0 0-5.5 7 749.074 749.074 0 0 1-24-46 1925.687 1925.687 0 0 1-24 43 604.22 604.22 0 0 1-16-29 544.88 544.88 0 0 0-20.5 39c-1.645.979-2.979 2.312-4 4-8.017-11.378-12.683-24.045-14-38V4.5h156c.333 43.005 0 86.005-1 129-1.746 11.495-5.746 22.162-12 32-.754-2.885-2.42-4.885-5-6z"/><path style="opacity:1" fill="#0a3156" d="M142.5 159.5c2.58 1.115 4.246 3.115 5 6 6.254-9.838 10.254-20.505 12-32 1-42.995 1.333-85.995 1-129H4.5v127a4096.603 4096.603 0 0 1-1-128h158c.167 43.668 0 87.335-.5 131-1.74 11.485-5.74 22.152-12 32-1 1.333-2 1.333-3 0l-3.5-7z"/><path style="opacity:1" fill="#1a1209" d="M91.5 20.5h-6v-5h-4v5h-6c1.419-.951 3.085-1.285 5-1v-5h6v5c1.915-.285 3.581.049 5 1z"/><path style="opacity:1" fill="#ef9b22" d="M91.5 20.5v4h-6v12h-4v-12h-6v-4h6v-5h4v5h6z"/><path style="opacity:1" fill="#130103" d="M75.5 20.5v4h6v12h4v-12h6v-4c.961 1.765 1.295 3.765 1 6h-6v8c4.626.8 8.46-.534 11.5-4 2.554 3.205 5.887 5.205 10 6 1.895-1.682 4.062-2.182 6.5-1.5 1.269 3.2 3.269 5.868 6 8 7.854-1.13 9.854 1.87 6 9a14.102 14.102 0 0 1 1 3.5v2c-6.638 1.924-11.805 5.924-15.5 12a53.898 53.898 0 0 0-13.5-14c-5 4.333-9.667 9-14 14a111.107 111.107 0 0 1-8-9.5 1667.853 1667.853 0 0 0-6.5-4.5c-6.68 2.68-11.346 7.346-14 14-4.627-6.714-10.794-11.047-18.5-13 1.291.237 2.291-.096 3-1a9.106 9.106 0 0 1 1-5c-4.466-2.61-4.8-5.277-1-8 1.577-2.517 3.41-2.517 5.5 0 2.83-3.53 5.83-6.863 9-10 3.325 2.89 7.158 3.224 11.5 1 .78-1.955 2.28-2.955 4.5-3 2.22.045 3.72 1.045 4.5 3 1.545.952 3.212 1.285 5 1v-8h-6c-.295-2.235.039-4.235 1-6z"/><path style="opacity:1" fill="#fefefe" d="M40.5 42.5h4c.601 4.409-1.066 5.742-5 4a6.845 6.845 0 0 0 1-4zM110.5 36.5c2.165-.384 3.832.283 5 2-1.168 1.717-2.835 2.384-5 2v-4z"/><path style="opacity:1" fill="#fefefa" d="M53.5 34.5c3.185.222 4.185 1.722 3 4.5-3.793.487-4.793-1.013-3-4.5z"/><path style="opacity:1" fill="#fefefd" d="M96.5 32.5c2.412.194 3.412 1.527 3 4h-4c-.067-1.459.266-2.792 1-4z"/><path style="opacity:1" fill="#fefefe" d="M69.5 31.5c2.666-.434 3.833.566 3.5 3-3.597 1.566-4.763.566-3.5-3z"/><path style="opacity:1" fill="#f19b1e" d="M119.5 58.5c.033-3.602-1.301-6.602-4-9-3.869-3.017-8.202-5.184-13-6.5-14-.667-28-.667-42 0-4.749 1.255-8.082 4.088-10 8.5-1.574 1.602-2.24 3.602-2 6-5.646.042-7.48-2.291-5.5-7a48.928 48.928 0 0 1 6.5-9.5l8-1c.837-1.011 1.17-2.178 1-3.5 2.234.12 4.401-.214 6.5-1 1.72 1.395 3.72 2.061 6 2 2.958-1.359 6.124-2.026 9.5-2v3h6v-3c2.357-.163 4.69.003 7 .5 3.13 3.084 6.464 3.25 10 .5 1.635.546 3.301.88 5 1 .592 4.762 3.092 6.096 7.5 4a9.465 9.465 0 0 0 2.5 1.5 24.133 24.133 0 0 0 6 8.5l2 4a46.554 46.554 0 0 1-7 3z"/><path style="opacity:1" fill="#fefefe" d="M122.5 44.5c3.638-.763 5.138.57 4.5 4-3.669 1.51-5.169.176-4.5-4z"/><path style="opacity:1" fill="#2e0000" d="M119.5 58.5h-1c-1.717-6.22-5.717-10.386-12-12.5a31.29 31.29 0 0 0-10-1.5c-10.235-1.318-20.569-1.318-31 0-6.167-.082-11.167 2.251-15 7 1.918-4.412 5.251-7.245 10-8.5 14-.667 28-.667 42 0 4.798 1.316 9.131 3.483 13 6.5 2.699 2.398 4.033 5.398 4 9z"/><path style="opacity:1" fill="#ea9c25" d="M96.5 44.5c-.667 0-1 .333-1 1h-30v-1c10.431-1.318 20.765-1.318 31 0z"/><path style="opacity:1" fill="#d79e4d" d="M65.5 44.5v1c-8.785.617-13.952 5.283-15.5 14a18.164 18.164 0 0 1 .5-8c3.833-4.749 8.833-7.082 15-7z"/><path style="opacity:1" fill="#c00606" d="M108.5 49.5c3.794 2.236 6.127 5.57 7 10-.386 2.437-1.553 4.437-3.5 6a34.692 34.692 0 0 1-6.5-7.5 41.638 41.638 0 0 0-7-4.5c-5.575 2.906-10.242 6.906-14 12a60.743 60.743 0 0 1-9-9.5c-3.926-3.226-7.926-3.226-12 0-9.953 11.023-12.786 9.523-8.5-4.5 1.8-1.817 3.966-2.984 6.5-3.5a238.31 238.31 0 0 1 47 1.5z"/><path style="opacity:1" fill="#350100" d="M108.5 49.5c5.253 1.254 7.92 4.587 8 10h-1c-.873-4.43-3.206-7.764-7-10z"/><path style="opacity:1" fill="#d99e48" d="M95.5 45.5c0-.667.333-1 1-1a31.29 31.29 0 0 1 10 1.5c6.283 2.114 10.283 6.28 12 12.5-.342.838-1.008 1.172-2 1-.08-5.413-2.747-8.746-8-10-.111-.617-.444-1.117-1-1.5a227.513 227.513 0 0 0-12-2.5z"/><path style="opacity:1" fill="#00010c" d="M40.5 55.5c-.709.904-1.709 1.237-3 1a18.436 18.436 0 0 0-6 .5c1.987 1.319 3.154 3.152 3.5 5.5.202 8.71.869 17.376 2 26 3.525 8.022 9.692 12.522 18.5 13.5 20.547 3.594 40.88 2.594 61-3 5.435-1.77 9.268-5.27 11.5-10.5-.084-4.38.082-8.712.5-13l-.5-2c-.278.916-.778 1.582-1.5 2 .268-1.599-.066-2.932-1-4 .962-2.486 1.795-2.486 2.5 0 .157-4.785 1.324-9.285 3.5-13.5a8.435 8.435 0 0 0-4-.5v-2a11.99 11.99 0 0 0 6-1l1 1.5a27.388 27.388 0 0 0-3.5 10.5c5.169 22.231-3.331 34.731-25.5 37.5-19.83 3.72-39.496 3.053-59-2-8.108-3.451-12.275-9.618-12.5-18.5l-1-20a26.06 26.06 0 0 0-4.5-7.5c3.926-1.824 7.926-1.99 12-.5z"/><path style="opacity:1" fill="#fefefe" d="M125.5 71.5c.934 1.068 1.268 2.401 1 4-.992.172-1.658-.162-2-1 .904-.709 1.237-1.709 1-3z"/><path style="opacity:1" fill="#fdfdfd" d="M127.5 57.5a8.435 8.435 0 0 1 4 .5c-2.176 4.215-3.343 8.715-3.5 13.5-.705-2.486-1.538-2.486-2.5 0 .237 1.291-.096 2.291-1 3-.617.11-1.117.444-1.5 1l-1-5c-1.013 4.244-.18 8.077 2.5 11.5.667.667 1.333.667 2 0-2.561-2.156-2.561-4.323 0-6.5.722-.418 1.222-1.084 1.5-2l.5 2c-.418 4.288-.584 8.62-.5 13-2.232 5.23-6.065 8.73-11.5 10.5-20.12 5.594-40.453 6.594-61 3-8.808-.978-14.975-5.478-18.5-13.5a243.054 243.054 0 0 1-2-26c-.346-2.348-1.513-4.181-3.5-5.5a18.436 18.436 0 0 1 6-.5c7.706 1.953 13.873 6.286 18.5 13 2.654-6.654 7.32-11.32 14-14 2.156 1.485 4.323 2.985 6.5 4.5a111.107 111.107 0 0 0 8 9.5c4.333-5 9-9.667 14-14a53.898 53.898 0 0 1 13.5 14c3.695-6.076 8.862-10.076 15.5-12z"/><path style="opacity:1" d="M94.5 78.5c.81-1.792 1.31-3.792 1.5-6 1.53 6.454 2.196 6.454 2 0 1.422 2.53 1.755 5.197 1 8-1.873 1.89-2.706 3.89-2.5 6a52.26 52.26 0 0 1-2-8zM64.5 72.5c.79 1.109 1.29 2.442 1.5 4 .112-2.947 1.612-4.28 4.5-4a15.42 15.42 0 0 0 1 7c-1.57 2.382-2.404 5.049-2.5 8-2.661-1.243-3.161-3.076-1.5-5.5a10.018 10.018 0 0 0-2.5-4.5c-.493-1.634-.66-3.3-.5-5z"/><path style="opacity:1" fill="#fefffe" d="M67.5 74.5c.767.672 1.434 1.505 2 2.5-1.561.188-2.228-.645-2-2.5z"/><path style="opacity:1" d="M94.5 78.5c-2.381-2.024-2.548-4.357-.5-7 .497 2.31.663 4.643.5 7zM124.5 74.5c.342.838 1.008 1.172 2 1-2.561 2.177-2.561 4.344 0 6.5-.667.667-1.333.667-2 0-2.68-3.423-3.513-7.256-2.5-11.5l1 5c.383-.556.883-.89 1.5-1zM44.5 74.5c-.16-1.7.007-3.366.5-5 1.314 1.647 1.148 3.314-.5 5z"/><path style="opacity:1" fill="#090909" d="M44.5 74.5c-.077 1.25-.744 2.083-2 2.5 1.385 1.965 1.218 3.798-.5 5.5a23.668 23.668 0 0 0-2.5-6 15.42 15.42 0 0 0 1-7h3a9.106 9.106 0 0 1-1 5c.47.963 1.136.963 2 0z"/><path style="opacity:1" fill="#fb9907" d="M112.5 151.5a745.8 745.8 0 0 0 12.5-21 2216.012 2216.012 0 0 1 21.5 39.5c-11.822 16.235-27.488 26.402-47 30.5h-34c-18.25-3.876-33.083-13.21-44.5-28-.135-2.422.365-4.755 1.5-7a930.156 930.156 0 0 0 20.5-36 1704.286 1704.286 0 0 0 26 49c.667-1 .667-2 0-3a292.014 292.014 0 0 1-9.5-18 1314.378 1314.378 0 0 0 23.5-42 452.842 452.842 0 0 0 23.5 45.5c-3.505 4.838-6.005 10.005-7.5 15.5a227.458 227.458 0 0 0 13.5-25z"/><path style="opacity:1" fill="#fefefe" d="M-.5 130.5c6.707 40.705 30.04 66.038 70 76h-70v-76zM165.5 132.5v74h-70a236.853 236.853 0 0 1 15-4.5c30.929-13.405 49.262-36.572 55-69.5z"/><path style="opacity:1" fill="#150102" d="M112.5 151.5a227.458 227.458 0 0 1-13.5 25c1.495-5.495 3.995-10.662 7.5-15.5A452.842 452.842 0 0 1 83 115.5a1314.378 1314.378 0 0 1-23.5 42 292.014 292.014 0 0 0 9.5 18c.667 1 .667 2 0 3a1704.286 1704.286 0 0 1-26-49 930.156 930.156 0 0 1-20.5 36 544.88 544.88 0 0 1 20.5-39 604.22 604.22 0 0 0 16 29 1925.687 1925.687 0 0 0 24-43 749.074 749.074 0 0 0 24 46 478.42 478.42 0 0 1 5.5-7z"/><path style="opacity:1" fill="#ea9c28" d="M65.5 200.5h34c-1.109.79-2.442 1.29-4 1.5-8.667.667-17.333.667-26 0-1.558-.21-2.891-.71-4-1.5z"/></svg>
